X: 72
T:Road to the Isles
M:2/2
L:1/8
R:barndance
N:a scottish song exported to donegal..
K:D
Ad|"$"f3  g afef |dedc Bcdc|BABc defa|e2 e2 e2 Ad|
f3  g afef |dedc B2 gg|(3fga fa Adce|1d2 d2 dcBA :|d2 d2 defg||
|:aAAA aAAA|dedc Bcdc|BABc defa |e2 e2 e2 fg|aAAA aAAA|dedc B2 gg|(3fga
fa Adce|1 d2 dc defg :|2 d2 d2 dcB"$"A||
